X: 8
T: No_17_Hunting_Song.krn
N: Derived from No_17_Hunting_Song.krn
%%abc-version 2.0
%%abcx-abcm2ps-target-version 5.9.1 (29 Sep 2008)
%%abc-creator hum2abc beta
%%abcx-conversion-date 2019/03/15 08:25:35
%%humdrum-veritas 591651913
%%humdrum-veritas-data 1663360855
%%linebreak <none>
%%barnumbers 0
L: 1/8
M: 2/4
K: A clef=bass
[K:clef=bass][M:2/4]A,/E,/E, E,E, | 
A,/E,/E, E,E, | 
E,E, E,E, ]|:  
[M:3/4]E2EE/C/ A,A,/ z/ | 
[M:2/4]E2E/E/F | 
[M:5/8]EEB,B,B, | 
[M:3/8]A,/F,/A,/F,/E,/E,/ | 
[M:2/4]B,B,/B,/ B,A, | 
[M:3/4]A,A, E,E, E, z | 
[M:5/8]EEE2B, | 
[M:3/8]E2E/C/ | 
A,A,A, | 
[M:2/4]EE EE | 
E/B,/B,/B,/ B,/A,/A,/A,/ | 
B,3/B,/ A,3/B,/ | 
[M:3/4](3B,A,A, E,E, E, z | 
B,B,/A,/ B,A, A,A, | 
[M:2/4]E,E, E,E, | 
[M:3/4]A,A, E,A, E,E, | 
[M:2/4]F,/E,/E, E, z | 
[M:3/4]F,/E,/E, E,E, E,E, :|]  
[M:2/4]C,E,/E,/ E,E, | 
E,2EE ]|:  
G2F3/E/ | 
F/E/E E/C/C/B,/ | 
[M:3/4]C/A,/A, A,A, E,E, | 
A,A, A,A, E,E, | 
A,A, A,3/A,/ E,E,/ z/ | 
B,/B,3/ A,3/A,/ A,B, | 
[M:2/4]B,A, B,A, | 
(3E,E,E, E,E, | 
[M:3/4]B,B, B,A, E,E, | 
[M:2/4]A,A, A,3/A,/ | 
E,E, E,E, | 
[M:3/4]C,E, E, z EE :|]  
[M:2/4]C,E, E, z | 
A,A, E,A, | 
[M:3/4]E,E, E,E, E, z | 
F,/E,/E, E,E, E,E, |]  



